X: 26
T: The Miner's of Wicklow     Irish.
%R: jib
B: Urbani & Liston "A Selection of Scotch, English Irish, and Foreign Airs", Edinburgh 1800, p.11 #1
F: http://www.vwml.org/browse/browse-collections-dance-tune-books/browse-urbani1800
Z: 2014 John Chambers <jc:trillian.mit.edu>
M: 6/8
L: 1/8
K: D
A/G/ |\
FGA AB=c | BGB AFA | BGE EFG | AFD  D2A/G/ |\
FGA AB=c | BGB AFA | B/c/eB c/d/ec | d3 D2 :|
|: a/g/ |\
fdf fdf | ece ece | fdf fdf | geg geg |\
fdf fdf | ece ecA | B/c/eB c/d/ec | d3 D2 :|

%%sep 1 1 500
%%sep 1 1 500
